common/icons/svgs/british_sign_language.svg

<svg xmlns="http://www.w3.org/2000/svg" width="24" height="24" viewBox="0 0 24 24">
  <g fill="none" fill-rule="evenodd" transform="translate(-72 -66)">
    <rect width="504" height="450" fill="#FFF"/>
    <g transform="translate(72 66)">
      <rect width="24" height="24"/>
      <path fill="#000" fill-rule="nonzero" d="M8.76923077,14.7126437 L3.50769231,14.7126437 C3.04615385,14.7126437 2.21538462,14.5287356 2.21538462,13.4252874 L2.21538462,10.0229885 L5.72307692,2.66666667 C5.81538462,2.3908046 6.09230769,2.20689655 6.36923077,2.11494253 C6.64615385,2.02298851 6.83076923,2.11494253 7.01538462,2.20689655 C7.56923077,2.57471264 7.56923077,3.12643678 7.38461538,3.5862069 L5.90769231,7.08045977 L5.90769231,7.26436782 L6,7.26436782 C6,7.26436782 6.09230769,7.26436782 6.09230769,7.17241379 L11.2615385,2.02298851 C11.5384615,1.93103448 11.7230769,1.83908046 11.9076923,1.83908046 C12.0923077,1.83908046 12.2769231,1.93103448 12.4615385,2.02298851 C12.6461538,2.20689655 12.6461538,2.3908046 12.6461538,2.57471264 C12.6461538,2.75862069 12.5538462,2.94252874 12.4615385,3.12643678 L8.86153846,6.62068966 C8.76923077,6.71264368 8.76923077,6.8045977 8.86153846,6.89655172 C8.95384615,6.98850575 9.04615385,6.98850575 9.13846154,6.89655172 L12.7384615,3.31034483 L12.7384615,3.2183908 L13.3846154,2.57471264 C13.5692308,2.3908046 13.7538462,2.3908046 13.9384615,2.3908046 C14.1230769,2.3908046 14.3076923,2.48275862 14.4923077,2.57471264 C14.7692308,2.85057471 14.7692308,3.31034483 14.4923077,3.5862069 L10.1538462,7.90804598 L10.1538462,8.18390805 L10.2461538,8.27586207 C10.2461538,8.27586207 10.3384615,8.27586207 10.3384615,8.18390805 L13.8461538,4.68965517 C14.0307692,4.50574713 14.2153846,4.50574713 14.4,4.50574713 C14.5846154,4.50574713 14.7692308,4.59770115 14.9538462,4.68965517 C15.1384615,4.87356322 15.1384615,5.05747126 15.1384615,5.24137931 C15.1384615,5.42528736 15.0461538,5.6091954 14.9538462,5.79310345 L11.5384615,9.1954023 C11.4461538,9.28735632 11.4461538,9.37931034 11.5384615,9.47126437 L11.6307692,9.56321839 C11.6307692,9.56321839 11.7230769,9.56321839 11.7230769,9.47126437 L12.5538462,8.64367816 C12.5538462,8.91954023 12.6461538,9.1954023 12.8307692,9.37931034 L13.4769231,10.0229885 L8.76923077,14.7126437 Z M15.4153846,7.54022989 C15.4153846,7.72413793 15.3230769,7.90804598 15.2307692,8 L15.0461538,8.27586207 L14.4923077,7.72413793 C14.3076923,7.54022989 14.0307692,7.44827586 13.7538462,7.44827586 L14.1230769,7.08045977 C14.3076923,6.89655172 14.4923077,6.89655172 14.6769231,6.89655172 C14.8615385,6.89655172 15.0461538,6.98850575 15.2307692,7.08045977 C15.3230769,7.17241379 15.4153846,7.35632184 15.4153846,7.54022989 L15.4153846,7.54022989 Z M13.2,9.10344828 C13.0153846,8.91954023 12.9230769,8.73563218 12.9230769,8.55172414 C12.9230769,8.36781609 13.0153846,8.18390805 13.1076923,8 C13.3846154,7.72413793 13.8461538,7.72413793 14.1230769,8 L21.6,15.4482759 L21.6,20.5057471 C21.6,20.8735632 21.5076923,21.2413793 21.3230769,21.4252874 C21.1384615,21.7011494 20.7692308,21.7931034 20.4,21.7931034 L16.9846154,21.7931034 L12,19.4942529 C11.7230769,19.4022989 11.5384615,19.1264368 11.4461538,18.8505747 C11.3538462,18.5747126 11.4461538,18.3908046 11.5384615,18.2068966 C11.9076923,17.6551724 12.4615385,17.6551724 12.9230769,17.8390805 L14.2153846,18.4827586 L14.3076923,18.4827586 C14.3076923,18.4827586 14.4,18.4827586 14.4,18.3908046 L14.4,18.2068966 L11.4461538,15.2643678 C11.1692308,14.9885057 11.1692308,14.5287356 11.4461538,14.2528736 C11.7230769,13.9770115 12.1846154,13.9770115 12.4615385,14.2528736 L13.4769231,15.2643678 C13.5692308,15.3563218 13.6615385,15.3563218 13.7538462,15.2643678 C13.8461538,15.1724138 13.8461538,15.0804598 13.7538462,14.9885057 L12.7384615,13.9770115 L12.6461538,13.9770115 L12.4615385,13.7931034 C12.2769231,13.7011494 12.2769231,13.5172414 12.2769231,13.2413793 C12.2769231,13.0574713 12.3692308,12.8735632 12.4615385,12.6896552 C12.7384615,12.4137931 13.2,12.4137931 13.4769231,12.6896552 L14.6769231,13.8850575 C14.7692308,13.9770115 14.8615385,13.9770115 14.9538462,13.8850575 C15.0461538,13.7931034 15.0461538,13.7011494 14.9538462,13.6091954 L14.0307692,12.6896552 C13.8461538,12.5057471 13.8461538,12.3218391 13.8461538,12.137931 C13.8461538,11.954023 13.9384615,11.7701149 14.0307692,11.5862069 C14.3076923,11.3103448 14.7692308,11.3103448 15.0461538,11.5862069 L15.9692308,12.5057471 C16.0615385,12.5977011 16.1538462,12.5977011 16.2461538,12.5057471 C16.3384615,12.4137931 16.3384615,12.3218391 16.2461538,12.2298851 L15.6923077,11.6781609 L13.2,9.10344828 L13.2,9.10344828 Z M24,20.5977011 L24,3.31034483 C24,1.47126437 22.5230769,0 20.6769231,0 L3.32307692,0 C1.47692308,0 0,1.47126437 0,3.31034483 L0,20.6896552 C0,22.5287356 1.47692308,24 3.32307692,24 L20.7692308,24 C22.5230769,23.908046 24,22.4367816 24,20.5977011 L24,20.5977011 Z"/>
    </g>
  </g>
</svg>

<svg xmlns="http://www.w3.org/2000/svg" viewbox="0 0 24 24"><path class="icon__shape" fill-rule="nonzero" d="M8.77 14.713H3.507c-.462 0-1.293-.184-1.293-1.288v-3.402l3.508-7.356c.092-.276.37-.46.646-.552.277-.092.462 0 .646.092.554.368.554.92.37 1.38L5.908 7.08v.184H6s.092 0 .092-.092l5.17-5.149c.276-.092.461-.184.646-.184.184 0 .369.092.554.184.184.184.184.368.184.552 0 .184-.092.368-.184.551l-3.6 3.495c-.093.092-.093.184 0 .276.092.092.184.092.276 0l3.6-3.587v-.092l.647-.643c.184-.184.369-.184.553-.184.185 0 .37.092.554.184a.72.72 0 0 1 0 1.011l-4.338 4.322v.276l.092.092s.092 0 .092-.092l3.508-3.494c.185-.184.37-.184.554-.184.185 0 .37.092.554.184.184.184.184.367.184.551 0 .184-.092.368-.184.552l-3.416 3.402c-.092.092-.092.184 0 .276l.093.092s.092 0 .092-.092l.83-.827c0 .276.093.551.278.735l.646.644-4.708 4.69zm6.645-7.173a.701.701 0 0 1-.184.46l-.185.276-.554-.552c-.184-.184-.461-.276-.738-.276l.37-.368c.184-.183.368-.183.553-.183.185 0 .37.092.554.183a.701.701 0 0 1 .184.46zM13.2 9.103c-.185-.183-.277-.367-.277-.551 0-.184.092-.368.185-.552a.726.726 0 0 1 1.015 0l7.477 7.448v5.058c0 .368-.092.735-.277.92-.185.275-.554.367-.923.367h-3.415L12 19.494c-.277-.092-.462-.368-.554-.643-.092-.276 0-.46.092-.644.37-.552.924-.552 1.385-.368l1.292.644h.093s.092 0 .092-.092v-.184l-2.954-2.943a.72.72 0 0 1 0-1.011.726.726 0 0 1 1.016 0l1.015 1.011c.092.092.185.092.277 0 .092-.092.092-.184 0-.275l-1.016-1.012h-.092l-.184-.184c-.185-.092-.185-.276-.185-.552 0-.184.092-.367.185-.551a.726.726 0 0 1 1.015 0l1.2 1.195c.092.092.185.092.277 0 .092-.092.092-.184 0-.276l-.923-.92c-.185-.183-.185-.367-.185-.551 0-.184.092-.368.185-.552a.726.726 0 0 1 1.015 0l.923.92c.093.092.185.092.277 0 .092-.092.092-.184 0-.276l-.554-.552L13.2 9.103zM24 20.598V3.31C24 1.471 22.523 0 20.677 0H3.323A3.303 3.303 0 0 0 0 3.31v17.38C0 22.529 1.477 24 3.323 24H20.77C22.523 23.908 24 22.437 24 20.598z"/></svg>
